packages/ffe-icons/icons/open/300/md/smart_screen.svg

<svg xmlns="http://www.w3.org/2000/svg" height="24" viewBox="0 -960 960 960" width="24"><path d="M530-452.308q-12 0-19.846-7.846T502.308-480q0-12 7.846-19.846T530-507.692q12 0 19.846 7.846T557.692-480q0 12-7.846 19.846T530-452.308Zm-200 0q-12 0-19.846-7.846T302.308-480q0-12 7.846-19.846T330-507.692q12 0 19.846 7.846T357.692-480q0 12-7.846 19.846T330-452.308Zm300 0q-12 0-19.846-7.846T602.308-480q0-12 7.846-19.846T630-507.692q12 0 19.846 7.846T657.692-480q0 12-7.846 19.846T630-452.308Zm-200 0q-12 0-19.846-7.846T402.308-480q0-12 7.846-19.846T430-507.692q12 0 19.846 7.846T457.692-480q0 12-7.846 19.846T430-452.308ZM132.309-220.001q-30.308 0-51.308-21t-21-51.308v-375.382q0-30.308 21-51.308t51.308-21h695.382q30.308 0 51.308 21t21 51.308v375.382q0 30.308-21 51.308t-51.308 21H132.309ZM170.001-280v-400h-37.692q-4.616 0-8.463 3.846-3.846 3.847-3.846 8.463v375.382q0 4.616 3.846 8.463 3.847 3.846 8.463 3.846h37.692Zm59.998 0h500.002v-400H229.999v400Zm560 0h37.692q4.616 0 8.463-3.846 3.846-3.847 3.846-8.463v-375.382q0-4.616-3.846-8.463-3.847-3.846-8.463-3.846h-37.692v400ZM170.001-680H120h50.001Zm619.998 0H840h-50.001Z"/></svg>

<svg xmlns="http://www.w3.org/2000/svg" height="24" viewBox="0 -960 960 960" width="24"><path d="M530-452.31q-12 0-19.85-7.84-7.84-7.85-7.84-19.85 0-12 7.84-19.85 7.85-7.84 19.85-7.84 12 0 19.85 7.84 7.84 7.85 7.84 19.85 0 12-7.84 19.85-7.85 7.84-19.85 7.84Zm-200 0q-12 0-19.85-7.84-7.84-7.85-7.84-19.85 0-12 7.84-19.85 7.85-7.84 19.85-7.84 12 0 19.85 7.84 7.84 7.85 7.84 19.85 0 12-7.84 19.85-7.85 7.84-19.85 7.84Zm300 0q-12 0-19.85-7.84-7.84-7.85-7.84-19.85 0-12 7.84-19.85 7.85-7.84 19.85-7.84 12 0 19.85 7.84 7.84 7.85 7.84 19.85 0 12-7.84 19.85-7.85 7.84-19.85 7.84Zm-200 0q-12 0-19.85-7.84-7.84-7.85-7.84-19.85 0-12 7.84-19.85 7.85-7.84 19.85-7.84 12 0 19.85 7.84 7.84 7.85 7.84 19.85 0 12-7.84 19.85-7.85 7.84-19.85 7.84ZM132.31-220Q102-220 81-241q-21-21-21-51.31v-375.38Q60-698 81-719q21-21 51.31-21h695.38Q858-740 879-719q21 21 21 51.31v375.38Q900-262 879-241q-21 21-51.31 21H132.31ZM170-280v-400h-37.69q-4.62 0-8.46 3.85-3.85 3.84-3.85 8.46v375.38q0 4.62 3.85 8.46 3.84 3.85 8.46 3.85H170Zm60 0h500v-400H230v400Zm560 0h37.69q4.62 0 8.46-3.85 3.85-3.84 3.85-8.46v-375.38q0-4.62-3.85-8.46-3.84-3.85-8.46-3.85H790v400ZM170-680h-50 50Zm620 0h50-50Z"/></svg>
